X:1
T:Come, Ye Lofty
T:George Job Elvey
T:Come, Ye Lofty
T:Public Domain
T:Public Domain
T:Public Domain
C:George Job Elvey
Z:Public Domain
%%score ( 1 2 ) ( 3 4 )
L:1/8
M:4/4
K:D
V:1 treble 
V:2 treble 
V:3 bass 
V:4 bass 
V:1
 D3 D [DG]2 [DF]2 | D3 D [DB]2 [DA]2 | [Dd]3 [Dd] [Ec]2 [EB]2 | [A,A]2 [DF]2 ([DF]2 [CE]2) | %4
w: 1.~Come, ye lof- ty,|low- ly, Let your|glad- ness ring; In|a sta- ble *|
w: 2.~Come ye poor, no|sta- tion Robes the|hearts a- dore; He,|the Lord of *|
w: 3.~Come, ye child- ren,|mer- ry, This one|mo- del make; Christ-|mas hol- ly, *|
w: 4.~High a- bove a|shin- ing, And the|haste from far: Come,|glad hearts, and *|
w: 5.~Hark the Heav’n of|ring- ing: Christ the|man is born! Are|not all our *|
 D3 D [DG]2 [DF]2 | D3 D [DB]2 [DA]2 | [Dd]3 [Dd] [Gd]2 [Gc]2 | [FB]2 [F^A]2 [FB]4 | %8
w: lies the Ho- ly,|man- ger rests the|in Ma- ry’s arms|re- pos- ing|
w: all sal- va- tion,|want, is weak and|en, round a- bout|be- hold them;|
w: leaf, and ber- ry,|prized for His dear|ye gen- tle hearts|and ten- der,|
w: spir- its pin- ing—|all has ris’n the|us bring our poor|o- bla- tions,|
w: hearts, too, sing- ing,|wel- come, Christ- mas|the Child, all power|pos- sess- ing,|
 [GB]3 [GB] [GB]2 [FA]2 | [Fd]3 [Fd] [Fd]2 [Fc]2 | F2 (z d) [Ec]2 [FB]2 | [EA]2 [E^G]2 [EA]4 | %12
w: Christ by high- est|Heav’n a- dored: Come,|your * cir- cle|* clos- ing,|
w: Raf- ters na- ked,|cold, and bare, See|the * shep- herds,|* told them|
w: Come ye spir- its|keen and bold; All|in * all your|* ren- der,|
w: Thanks and love, and|faith and praise; Come,|ye * peo- ple,|* na- tions,|
w: Smiles as through the|ag- es past; And|the * song of|* bless- ing|
 D2 (z G) [DG]2 [DF]2 | =C2 (z =c) [Dc]2 [DB]2 | G2 (z d) [Ec]2 [Dd]2 | [DF]2 [CE]2 D4 |] %16
w: Pi- * ous hearts|the * Lord. *|||
w: That * the Prince|lies * there. *|||
w: Weak * and might-|and * old. *|||
w: All * in all|to * gaze. *|||
w: Sweet- * ly sinks|at * last. *|||
V:2
 D3 D x4 | D3 D x4 | x8 | x8 | D3 D x4 | D3 D x4 | x8 | x8 | x8 | x8 | d3 E2 x3 | x8 | G3 D2 x3 | %13
w: come, ye|songs of|||In a|King: See|||||round Him||that love|
w: pomp of|Child your|||Shares your|poor: Ox-|||||God has||of Life|
w: blithe and|Child your|||All be|sake: Come|||||hom- age||y, young|
w: star is|wise men|||For you|star. Let|||||come, ye||draw nigh|
w: heav’ns is|Lord to|||Wel- come,|morn? Still|||||Christ- mas||to rest|
 =c3 D2 x3 | e3 G2 x3 | x4 D4 |] %16
w: |||
w: |||
w: |||
w: |||
w: |||
V:3
 D,3 D, [D,B,]2 [D,B,]2 | D,3 D, [D,G,]2 [D,F,]2 | [B,,B,]3 [B,,B,] [C,A,]2 [C,G,]2 | %3
 [D,F,]2 [F,A,]2 A,4 | D,3 D, [D,B,]2 [D,A,]2 | D,3 D, [D,G,]2 [D,F,]2 | %6
 [B,,B,]3 [B,,B,] [E,B,]2 [E,E]2 | [D,D]2 [F,C]2 [B,,D]4 | [G,,D]3 [B,,D] [D,D]2 [D,D]2 | %9
 [B,,D]2 [D,B,]2 [F,B,]2 [F,^A,]2 | B,2 [^G,B,]2 A,2 [D,D]2 | [D,C]2 [E,B,]2 [A,,C]4 | %12
 [B,,B,]2 [C,A,]2 [D,A,]2 [D,A,]2 | [E,G,]2 [F,A,]2 G,2 G,2 | [E,B,]2 [G,B,]2 A,2 ([F,A,][G,B,]) | %15
 A,2 z G, [D,F,]4 |] %16
V:4
 D,3 D, x4 | D,3 D, x4 | x8 | x4 A,4 | D,3 D, x4 | D,3 D, x4 | x8 | x8 | x8 | x8 | B,2 A,2 x4 | %11
 x8 | x8 | x4 G,2 G,2 | x4 A,2 x2 | A,3 A,,2 x3 |] %16

